libs/ui/packages/crypto-icons/src/svg/DTH.svg

<svg width="24" height="24" viewBox="0 0 24 24" fill="none">
<path d="M12 2.95154C7.8975 2.95454 4.572 6.27854 4.5675 10.3803C4.57125 10.7808 4.61626 11.1798 4.70101 11.5713C4.70532 11.5898 4.71415 11.607 4.72669 11.6213C4.73924 11.6356 4.75513 11.6465 4.77294 11.6532C4.79075 11.6599 4.80993 11.6621 4.82878 11.6596C4.84763 11.657 4.86557 11.6499 4.88101 11.6388C5.16495 11.4355 5.50528 11.3259 5.8545 11.3253C5.87138 11.3259 5.88817 11.3227 5.90366 11.3159C5.91915 11.3092 5.93296 11.2992 5.94408 11.2865C5.95521 11.2738 5.96337 11.2587 5.96798 11.2425C5.97259 11.2263 5.97354 11.2092 5.97075 11.1925C5.92137 10.9274 5.89577 10.6583 5.89425 10.3885C5.89425 9.58682 6.05217 8.79295 6.35897 8.05226C6.66578 7.31156 7.11547 6.63855 7.68237 6.07165C8.24927 5.50475 8.92228 5.05506 9.66297 4.74825C10.4037 4.44145 11.1975 4.28354 11.9993 4.28354C12.801 4.28354 13.5948 4.44145 14.3355 4.74825C15.0762 5.05506 15.7492 5.50475 16.3161 6.07165C16.883 6.63855 17.3327 7.31156 17.6395 8.05226C17.9463 8.79295 18.1043 9.58682 18.1043 10.3885C18.1043 13.756 13.7963 18.0573 12.2543 19.576C12.1864 19.6426 12.0951 19.68 12 19.68C11.9049 19.68 11.8136 19.6426 11.7458 19.576C11.0929 18.9389 10.4594 18.2824 9.846 17.6073H9.816C9.22606 17.5493 8.64689 17.4105 8.09475 17.1948L7.99275 17.1535C7.96913 17.1427 7.9425 17.1402 7.91727 17.1465C7.89205 17.1528 7.86974 17.1676 7.85407 17.1884C7.83839 17.2091 7.83028 17.2346 7.83109 17.2606C7.8319 17.2866 7.84157 17.3115 7.85851 17.3313C8.81322 18.4722 9.82632 19.5629 10.8938 20.599C11.1892 20.8871 11.5855 21.0484 11.9981 21.0484C12.4108 21.0484 12.8071 20.8871 13.1025 20.599C15.8175 17.917 19.4325 13.9495 19.4325 10.3803C19.428 6.27779 16.1025 2.95454 12 2.95154Z" fill="#3C80F1"/>
<path d="M15.09 11.1318C15.09 11.2368 15.0818 11.3395 15.072 11.4415C15.045 11.832 14.9546 12.2156 14.8043 12.577C14.6423 12.937 14.4263 13.2693 14.1645 13.564L14.172 13.5708C13.6535 14.1501 13.0132 14.6076 12.297 14.9103C11.5878 15.2154 10.8139 15.3396 10.0448 15.2718C9.31183 15.1989 8.61131 14.9331 8.01451 14.5015C8.20726 14.4955 8.3985 14.4663 8.5845 14.4145C8.75247 14.368 8.91341 14.2992 9.063 14.2098C9.38642 14.0167 9.63732 13.7226 9.777 13.3728C9.84225 13.213 9.88651 13.0465 9.91051 12.8755C9.92551 12.733 9.92926 12.5883 9.92401 12.4443V7.57676C9.92366 7.57202 9.92366 7.56726 9.92401 7.56251V7.53702C9.93488 7.47837 9.96402 7.42466 10.0073 7.38357C10.0505 7.34248 10.1056 7.31613 10.1648 7.30827H11.772C12.153 7.33827 12.5258 7.43801 12.8708 7.60301C13.5897 7.94295 14.1911 8.48946 14.598 9.17276C14.697 9.34076 14.784 9.51626 14.8568 9.69776C14.9265 9.87776 14.982 10.0653 15.0218 10.2543C15.0615 10.4433 15.084 10.6353 15.0893 10.828V11.1325L15.09 11.1318ZM16.413 10.7823C16.4049 10.5122 16.3725 10.2433 16.3163 9.97901C16.2047 9.45623 16.0081 8.95532 15.7343 8.49626C15.1914 7.58328 14.3876 6.85371 13.4265 6.40152C12.9354 6.16833 12.4056 6.02749 11.8635 5.98602C11.7953 5.98602 11.7293 5.98602 11.6543 5.97852H10.1558C10.1078 5.97852 10.0583 5.97852 10.0095 5.98902C9.81376 6.01152 9.62326 6.07152 9.4485 6.16452C9.20828 6.29288 9.00461 6.48018 8.85663 6.70885C8.70864 6.93751 8.6212 7.20004 8.6025 7.47177V12.4443C8.6025 12.5313 8.5965 12.6183 8.5845 12.7045C8.577 12.763 8.56275 12.82 8.54175 12.8755C8.52534 12.9168 8.50256 12.9553 8.47426 12.9895C8.40508 13.0638 8.31519 13.1155 8.21625 13.138C8.0685 13.1755 7.91625 13.1875 7.764 13.1733C7.22094 13.1201 6.70994 12.8916 6.30825 12.5223C6.19289 12.4156 6.04337 12.3533 5.88636 12.3466C5.72936 12.3399 5.57507 12.3892 5.45103 12.4856C5.32698 12.5821 5.24124 12.7195 5.20909 12.8734C5.17694 13.0272 5.20048 13.1874 5.2755 13.3255C5.74348 14.1803 6.38586 14.9272 7.161 15.5178C7.56078 15.816 7.99867 16.0594 8.46301 16.2415C8.92907 16.4234 9.41787 16.5405 9.91576 16.5895C10.9041 16.681 11.8997 16.5254 12.813 16.1365C13.7227 15.7603 14.5293 15.1722 15.1658 14.4213L15.174 14.428C15.5252 14.031 15.8135 13.5825 16.029 13.0983C16.2333 12.6051 16.3562 12.0821 16.3928 11.5495C16.4033 11.416 16.41 11.2953 16.4145 11.1678V10.9795C16.4198 10.924 16.4153 10.8483 16.4145 10.7823H16.413Z" fill="#3C80F1"/>
</svg>

<svg width="24" height="24" viewBox="0 0 24 24" fill="none"><path fill="#3c80f1" d="M12 2.952a7.44 7.44 0 0 0-7.432 7.428c.003.4.048.8.133 1.191a.116.116 0 0 0 .18.068c.284-.203.624-.313.973-.314a.11.11 0 0 0 .09-.038.11.11 0 0 0 .027-.095 4.5 4.5 0 0 1-.077-.803 6.105 6.105 0 0 1 12.21 0c0 3.367-4.308 7.668-5.85 9.187a.363.363 0 0 1-.508 0 46 46 0 0 1-1.9-1.969h-.03a6.5 6.5 0 0 1-1.721-.412l-.102-.041a.115.115 0 0 0-.139.034.114.114 0 0 0 .005.143 43 43 0 0 0 3.035 3.268 1.58 1.58 0 0 0 2.208 0c2.716-2.682 6.33-6.65 6.33-10.219A7.437 7.437 0 0 0 12 2.952"/><path fill="#3c80f1" d="M15.09 11.132q-.002.157-.018.31c-.027.39-.117.774-.268 1.135a3.9 3.9 0 0 1-.64.987l.008.007a5.3 5.3 0 0 1-1.875 1.34 4.66 4.66 0 0 1-2.252.36 4.17 4.17 0 0 1-2.03-.77q.289-.008.57-.086.252-.071.478-.205c.323-.193.574-.487.714-.837q.098-.24.134-.497.021-.215.013-.432V7.537a.28.28 0 0 1 .24-.229h1.608c.381.03.754.13 1.099.295a4 4 0 0 1 1.727 1.57q.149.252.259.525.105.271.165.556t.067.574zm1.323-.35a4.5 4.5 0 0 0-.097-.803 4.9 4.9 0 0 0-.582-1.483 5.3 5.3 0 0 0-2.307-2.094 4.4 4.4 0 0 0-1.563-.416c-.069 0-.135 0-.21-.007h-1.498a1.6 1.6 0 0 0-.707.186 1.61 1.61 0 0 0-.847 1.307v4.972q0 .13-.018.26a1 1 0 0 1-.042.172.4.4 0 0 1-.068.114.5.5 0 0 1-.258.148q-.222.057-.452.035a2.5 2.5 0 0 1-1.456-.65.663.663 0 0 0-1.032.803 7 7 0 0 0 1.885 2.192c.4.298.838.541 1.302.723.466.182.955.3 1.453.349a6 6 0 0 0 2.897-.453 6.2 6.2 0 0 0 2.353-1.716l.008.007c.351-.397.64-.846.855-1.33a5 5 0 0 0 .364-1.549c.01-.133.017-.254.021-.381v-.188c.006-.056.001-.132 0-.198z"/></svg>
